src/actions/32/mail-invitation.svg

<svg xmlns="http://www.w3.org/2000/svg" viewBox="0 0 32 32">
  <defs id="defs3051">
    <style type="text/css" id="current-color-scheme">
      .ColorScheme-Text {
        color:#2e3440;
      }
      </style>
  </defs>
 <path 
     style="fill:currentColor;fill-opacity:1;stroke:none" 
     d="M 5 5 L 5 9 L 2 13 L 2 27 L 20 27 L 20 26 L 3 26 L 3 14 L 5 14 L 5.7871094 14 L 16 19.570312 L 26.212891 14 L 27 14 L 29 14 L 29 16 L 30 16 L 30 13 L 27 9 L 27 5 L 5 5 z M 6 6 L 26 6 L 26 12.974609 L 16 18.429688 L 6 12.974609 L 6 6 z M 8 8 L 8 9 L 24 9 L 24 8 L 8 8 z M 8 11 L 8 12 L 17 12 L 17 11 L 8 11 z M 25.5 17 C 24.119288 17 23 18.119288 23 19.5 C 23 20.880712 24.119288 22 25.5 22 C 26.880712 22 28 20.880712 28 19.5 C 28 18.119288 26.880712 17 25.5 17 z M 25.5 23 C 23.567004 22.999999 22 24.79086 22 27 L 29 27 C 29 24.79086 27.432996 22.999999 25.5 23 z M 25.5 24 C 26.55817 24.0018 27.500793 24.802816 27.853516 26 L 23.146484 26 C 23.499207 24.802815 24.44183 24.001782 25.5 24 z "
     class="ColorScheme-Text"
     />
</svg>

<svg viewBox="0 0 32 32" xmlns="http://www.w3.org/2000/svg">
 <defs>
  <style type="text/css">.ColorScheme-Text {
        color:#2e3440;
      }</style>
 </defs>
 <path class="ColorScheme-Text" d="m5 5v4l-3 4v14h18v-1h-17v-12h2 0.78711l10.213 5.5703 10.213-5.5703h0.78711 2v2h1v-3l-3-4v-4h-22zm1 1h20v6.9746l-10 5.4551-10-5.4551v-6.9746zm2 2v1h16v-1h-16zm0 3v1h9v-1h-9zm17.5 6c-1.3807 0-2.5 1.1193-2.5 2.5s1.1193 2.5 2.5 2.5 2.5-1.1193 2.5-2.5-1.1193-2.5-2.5-2.5zm0 6c-1.933-1e-6 -3.5 1.7909-3.5 4h7c0-2.2091-1.567-4-3.5-4zm0 1c1.0582 0.0018 2.0008 0.80282 2.3535 2h-4.707c0.35272-1.1972 1.2953-1.9982 2.3535-2z" fill="currentColor"/>
</svg>
